X:1
T:BWV 386
T:BWV 386
T:BWV 386
T:J. S. Bach
T:CC0 1.0 Universal (Public Domain). Mark Gotham and FourScoreAndMore.org waive all rights to this document.
C:J. S. Bach
Z:CC0 1.0 Universal (Public Domain). Mark Gotham and FourScoreAndMore.org waive all rights to this document.
%%score [ 1 2 3 4 ]
L:1/8
M:4/4
K:A
V:1 treble nm="Soprano" snm="S."
V:2 treble nm="Alto" snm="A."
V:3 treble-8 nm="Tenor" snm="T."
V:4 bass nm="Bass" snm="B."
V:1
 e2 | e2 e2 f2 f2 | !fermata!e4 z2 c2 | d2 c2 B2 c>d | B4 !fermata!A2 e2 | e2 e2 f2 f2 | %6
 !fermata!e4 z2 c2 | d2 c2 B2 c>d | B4 !fermata!A2 B2 | B2 B2 c2 c2 | !fermata!B4 z2 B2 | %11
 c^d e2 e2 d2 | !fermata!e4 z2 e2 | f2 e2 d2 c2 | !fermata!d4 z2 c2 | B2 c>d B2- BA | %16
 !fermata!A6 x2 |] %17
V:2
 A2 | A2 A2 x4 | x4 z2 A2 | B2 A2 G2 A2 | x6 A2 | A2 A2 x4 | x4 z2 A2 | B2 A2 G2 A2 | x6 GF | %9
 E2 E2 x4 | x4 z2 G2 | A2 G2 x4 | x4 z2 A2 | AB c2 x4 | x4 z2 A2 | G2 A2 x4 | x6 x2 |] %17
V:3
 c2 | c2 c2 x4 | x4 z2 f2 | e2 e2 e2 e2 | x6 c2 | c2 c2 x4 | x4 z2 f2 | e2 e2 e2 e2 | x6 BA | %9
 GA B2 x4 | x4 z2 e2 | e2 e2 x4 | x4 z2 c2 | d2 c2 x4 | x4 z2 e2 | e2 ef x4 | x6 x2 |] %17
V:4
 A,,2 | A,B, CA, x4 | x4 z2 A,2 | G,2 A,2 E,D, C,A,, | x6 A,,2 | A,B, CA, x4 | x4 z2 A,2 | %7
 G,2 A,2 E,D, C,A,, | x6 E,2 | E,F, G,E, x4 | x4 z2 E,2 | A,B, CG, x4 | x4 z2 A,,2 | %13
 D,C, B,,^A,, x4 | x4 z2 C,D, | E,2 A,F, x4 | x6 x2 |] %17

